X: 19192
T: Isabella's
R: jig
M: 6/8
K: Bminor
~f3 edB|BAB dAB|~f3 edB|BAB ~e3|fzf edB|BAB dAB|~e3 fed|dBA B3:|
fbf afg|efd edB|fbf afg|efd ~e3|fbf afg|efd edB|~e3 fed|dBA B3:|

